src/computer-desktop.svg

<?xml version="1.0" encoding="UTF-8" standalone="no"?>
<svg width="20px" height="20px" viewBox="0 0 20 20" version="1.1" xmlns="http://www.w3.org/2000/svg" xmlns:xlink="http://www.w3.org/1999/xlink">
    <!-- Generator: Sketch 3.7.2 (28276) - http://www.bohemiancoding.com/sketch -->
    <title>computer-desktop</title>
    <desc>Created with Sketch.</desc>
    <defs></defs>
    <g id="Page-1" stroke="none" stroke-width="1" fill="none" fill-rule="evenodd">
        <g id="computer-desktop" fill="#000000">
            <path d="M3,19 L7,17 L13,17 L17,19 L17,20 L3,20 L3,19 Z M0,2.00010618 C0,0.895478039 0.898212381,0 1.99079514,0 L18.0092049,0 C19.1086907,0 20,0.890058413 20,2.00010618 L20,14.9998938 C20,16.104522 19.1017876,17 18.0092049,17 L1.99079514,17 C0.891309342,17 0,16.1099416 0,14.9998938 L0,2.00010618 Z M2,2 L18,2 L18,13 L2,13 L2,2 Z" id="Combined-Shape"></path>
        </g>
    </g>
</svg>

<svg xmlns="http://www.w3.org/2000/svg" viewBox="0 0 20 20"><path d="M7 17H2a2 2 0 0 1-2-2V2C0 .9.9 0 2 0h16a2 2 0 0 1 2 2v13a2 2 0 0 1-2 2h-5l4 2v1H3v-1l4-2zM2 2v11h16V2H2z"/></svg>
